images/labajainspira-itinerante/2024/coral.svg

<svg fill="none" height="425" viewBox="0 0 425 425" width="425" xmlns="http://www.w3.org/2000/svg" xmlns:xlink="http://www.w3.org/1999/xlink"><clipPath id="a"><path d="m0 0h390.44v390.44h-390.44z" transform="matrix(.99578127 -.09175867 .09175867 .99578127 0 35.8262)"/></clipPath><g clip-path="url(#a)"><path d="m409.764 242.166c-11.897-6.555-23.946-9.26-38.137-4.862-9.448 2.921-16.333 8.995-24.555 13.305-7.856 4.115-16.369 8.521-21.964 14.908-12.553 14.334-27.458 25.324-44.254 34.293-1.414.746-3.219.836-4.843 1.216.265-1.38.192-2.915.845-4.084 5.626-10.143 10.778-20.597 17.309-30.161 7.532-11.05 16.263-21.349 24.597-31.864 7.833-9.869 10.787-19.411 3.274-31.164-2.771-4.314-6.219-9.128-4.896-16.779 2.748-16.204 12.208-28.588 20.7-41.561 7.53-11.482 17.168-21.687 25.095-32.951 3.541-5.011 6.596-11.203 6.887-16.9632.139-2.3246-7.72-4.9139-11.896-7.3802-1.009-.616-1.84-1.6259-2.915-2.0431-5.973-2.1236-11.567-4.9755-18.578-3.8671-6.118.9721-12.288 1.7102-18.341 2.9615-9.258 1.9088-15.767 6.716-17.851 16.3711-.629 2.924-3.394 5.76-5.81 7.971-2.7 2.46-6.106 4.184-9.236 6.153-4.85 3.051-7.212 8.601-4.959 12.378 4.421 7.367 4.598 15.296 5.191 22.978 1.316 17.286.997 34.584-11.766 49.137-.822.856-1.549 1.799-2.169 2.812-9.196 16.914-18.038 33.919-29.786 49.489-3.635 4.819-5.588 11.133-7.018 17.044-1.962 8.049-2.703 16.347-3.923 24.542-.247 1.734-.369 3.494-.529 5.258-1.442-1.639-4.306-3.456-4.103-4.923 1.476-9.992.363-20.069 3.609-30.116 5.437-16.775 15.261-32.137 16.726-50.334.554-6.74.638-12.334-3.156-17.571-6.957-9.554-11.658-19.809-11.86-31.672-.083-3.984.629-8.011.599-12.007-.112-12.797 1.758-25.692 7.968-36.744 9.523-16.8745 13.178-35.3123 19.52-53.019 1.503-4.1995.829-10.1787-3.942-10.1089-7.635.1024-11.218-5.0154-16.327-8.0276-4.497-2.8186-9.567-4.5897-14.836-5.1829-9.15-1.091-17.315 1.3336-25.746 2.4573-5.275.7018-10.287 4.246-15.102 7.0168-2.304 1.3374-2.109 2.953-.404 5.9553 6.251 10.8979 9.89 22.2061 8.726 35.6675-1.242 14.4545-6.302 27.3965-11.172 40.5835-4.592 12.436-7.733 25.371-6.992 38.079.487 8.208 1.561 16.354 2.651 24.514.512 3.729.995 7.463 1.447 11.202.856 6.957 1.521 13.931 1.695 20.981.19 8.813 4.544 17.389 5.782 26.237 1.558 11.153 1.996 22.487 2.612 33.758.428 7.014.489 14.046.182 21.066-.363 4.664-1.193 9.279-2.48 13.775-.381 1.453-2.287 2.523-3.49 3.805-.223-1.302-.317-2.623-.279-3.943.514-4.671 2.138-9.398 1.636-13.929-1.808-16.701-4.578-32.998-13.031-48.293-7.434-13.471-13.272-28.059-14.851-43.611-.557-5.466-.095-11.041-.068-16.576.053-10.678-1.39-21.595.588-31.972 2.355-12.454-1.752-22.347-8.045-32.116-2.348-3.637-5.975-6.485-8.218-10.154-7.162-11.608-9.043-25.1046-4.44-37.0875 5.824-15.0852 11.089-29.7259 12.262-45.9238.344-5.025 2.29-10.1668-2.108-13.0366-4.418-2.804-9.554-4.256-14.781-4.1784-1.531.0563-2.995.1758-4.45.3099-14.705 1.5708-28.027 7.8071-40.9645 14.717-1.6554.8769-4.0335 3.3307-3.6962 4.2397.7769 2.1785 2.9121 5.4263 4.6146 5.4774 4.2052.1107 8.4132.0007 12.6067-.3294 3.0564-.1814 6.1714-.4685 9.2474-.7674 2.423-.2232 4.752-1.5398 7.127-2.3597-1.812 1.924-3.299 4.8813-5.504 5.5468-5.409 1.6543-11.1367 2.4441-16.7829 3.1955-3.0357.4031-6.1714-.2789-9.1453.2109-1.0899.1775-2.6324 2.3616-2.6243 3.6169.0098 7.4429-.0302 14.929.785 22.2745 1.3365 11.8363-.959 23.6062-.5166 35.4942.523 14.762 1.3873 28.561 9.0676 41.546 4.0155 6.812 8.6996 13.794 10.3175 21.266 3.237 15.036 5.521 30.314 3.471 46.007-1.385 10.477-3.046 21.549-.929 31.602 2.219 10.653 8.794 20.396 13.323 30.613.444.992-.45 2.538-.724 3.819-1.182-.569-2.699-.868-3.474-1.768-4.989-5.789-9.248-12.247-14.7934-17.485-9.4563-9-20.7867-16.578-21.74-31.008-6.679-5.788-2.4377-13.199-2.83-19.875-.4128-6.897-1.0909-13.839 3.1644-20.265 2.5713-3.858-.02-6.802-3.4295-8.122-3.0263-1.162-6.6184-1.378-9.9483-1.333-11.2072.177-20.9276 4.818-29.8398 10.81-4.9725 3.394-10.0197 7.311-13.1964 12.104-1.4926 2.226 2.094 7.051 2.1965 10.748.3069 10.667 1.8009 21.711-.5136 31.941-3.053 13.305 4.6154 21.66 11.489 30.143 6.3962 7.887 14.9623 13.978 23.8313 19.773 13.6414 8.899 26.1321 19.399 38.9531 29.399 5.3977 4.218 11.1517 8.304 15.4667 13.447 10.007 11.977 19.43 24.286 32.775 33.382 3.665 2.506 5.621 7.396 8.157 11.331 2.348 3.636 4.146 7.555 6.608 11.096 5.038 7.242 16.947 9.427 24.066 4.479 8.215-5.72 15.788-12.567 24.604-17.193 14.336-7.486 27.759-15.55 36.99-29 2.157-3.172 4.85-5.942 7.957-8.185 10.598-7.464 21.168-15.05 32.383-21.57 5.322-3.095 10.113-6.958 18.542-5.361 9.977 1.901 21.402.586 31.444-2.073 11.855-3.142 22.905-9.2 34.816-14.659 7.011-5.37 13.905-9.334 17.739-16.992 4.543-9.057 10.859-17.299 15.562-26.286 3.528-6.736 5.834-14.053 8.321-21.248.416-1.233-.473-3.794-1.567-4.418zm-182.32-195.2478c1.795.3894 4.312.5197 5.141 1.6762 1.759 2.4194 4.622 4.5598-1.352 7.4296-12.506 6.0071-23.494 4.4767-34.457-2.2805 8.594-6.787 19.163-9.3021 30.668-6.8253zm-39.713 88.7388c-.245.508-.514 1.011-.76 1.504-.654-1.173.045-1.345.76-1.504zm-7.014 34.013c-1.199.657-1.377-.027-1.563-.704.522.245 1.05.474 1.563.704zm1.665 19.65c.569.785.959 1.686 1.142 2.638.061.437.066.879.014 1.317-.543-.05-1.549-.135-1.553-.173.087-1.233.247-2.496.397-3.782zm2.553 15.785-1.601-.707c1.239-.639 1.425.046 1.603.73zm-84.572-160.7323c-.5266.1783-1.0776.2732-1.6334.2815-1.7124-.0253-3.4177-.2297-5.088-.61-.8826-.1576-1.5375-1.3455-2.2789-2.0555.595-.4325 1.2291-.8083 1.8939-1.1223 11.0324-3.9911 22.0364-7.9564 33.1264-11.8294.148-.0433.299-.0778.451-.1033 1.19-.1713 2.656.3949 3.976.543 1.412 1.7423 1.693 3.1189 1.471 3.2087-10.594 4.0046-21.21 8.0112-31.918 11.6873zm-67.9488 180.1503c.2038-1.29-.0507-3.301.7063-3.756 2.4959-1.509 5.3852-3.502 8.049-3.439 4.7215.135-.028 2.114.1628 3.268-2.3012 2.038-3.5049 2.981-4.8748 3.454-1.3281.296-2.6829.454-4.0433.473zm7.356-20.713c5.8545-3.159 12.198-5.431 18.4235-7.816 1.0992-.409 2.733.48 4.1124.777-.5551 1.145-.8089 2.81-1.7486 3.367-4.1048 2.389-8.4394 4.453-12.6775 6.647-3.5455 1.29-4.8537 3.183-5.7896 3.03-4.2791-.669-6.8314 7.565-11.8144 2.175 3.1471-2.779 5.8776-6.244 9.4921-8.203zm348.4308 53.535c-3.48 2.171-14.65-.584-17.804-4.292 7.235-.274 12.087-.305 16.9-.017.64.034 1.399 1.513 1.692 2.449.031.351-.025.705-.163 1.029s-.352.61-.625.831zm-68.738-153.63c4.992-3.35 10.483-6.3603 4.579-13.0828-.139-.1722.746-1.7409 1.29-1.8373 4.369-.7725 9-2.3705 13.05-1.688 3.568.6267 7.839 3.2847 9.51 6.2515 2.449 4.3979-3.128 5.821-5.842 8.1286-7.075 5.499-14.26 5.56-21.173 6.574-.502-.024-.989-.176-1.417-.441-.427-.266-.781-.635-1.027-1.075-.077-.52-.023-1.052.157-1.546s.48-.936.873-1.284zm73.178 145.878c-7.031-3.768-14.109-2.553-21.407-1.465-.901.137-2.167-1.264-3.018-2.156-.229-.234.391-1.84.727-1.863 7.761-.815 15.512-1.653 23.308-2.086 1.218-.112 2.543 1.669 3.817 2.576 2.761 5.618-1.933 5.788-3.427 4.994z" fill="#00a7ce"/></g></svg>

<svg width="425" height="425" viewBox="0 0 425 425" fill="none" xmlns="http://www.w3.org/2000/svg">
<g clip-path="url(#clip0_398_1043)">
<path d="M409.764 242.166C397.867 235.611 385.818 232.906 371.627 237.304C362.179 240.225 355.294 246.299 347.072 250.609C339.216 254.724 330.703 259.13 325.108 265.517C312.555 279.851 297.65 290.841 280.854 299.81C279.44 300.556 277.635 300.646 276.011 301.026C276.276 299.646 276.203 298.111 276.856 296.942C282.482 286.799 287.634 276.345 294.165 266.781C301.697 255.731 310.428 245.432 318.762 234.917C326.595 225.048 329.549 215.506 322.036 203.753C319.265 199.439 315.817 194.625 317.14 186.974C319.888 170.77 329.348 158.386 337.84 145.413C345.37 133.931 355.008 123.726 362.935 112.462C366.476 107.451 369.531 101.259 369.822 95.4988C369.961 93.1742 362.102 90.5849 357.926 88.1186C356.917 87.5026 356.086 86.4927 355.011 86.0755C349.038 83.9519 343.444 81.1 336.433 82.2084C330.315 83.1805 324.145 83.9186 318.092 85.1699C308.834 87.0787 302.325 91.8859 300.241 101.541C299.612 104.465 296.847 107.301 294.431 109.512C291.731 111.972 288.325 113.696 285.195 115.665C280.345 118.716 277.983 124.266 280.236 128.043C284.657 135.41 284.834 143.339 285.427 151.021C286.743 168.307 286.424 185.605 273.661 200.158C272.839 201.014 272.112 201.957 271.492 202.97C262.296 219.884 253.454 236.889 241.706 252.459C238.071 257.278 236.118 263.592 234.688 269.503C232.726 277.552 231.985 285.85 230.765 294.045C230.518 295.779 230.396 297.539 230.236 299.303C228.794 297.664 225.93 295.847 226.133 294.38C227.609 284.388 226.496 274.311 229.742 264.264C235.179 247.489 245.003 232.127 246.468 213.93C247.022 207.19 247.106 201.596 243.312 196.359C236.355 186.805 231.654 176.55 231.452 164.687C231.369 160.703 232.081 156.676 232.051 152.68C231.939 139.883 233.809 126.988 240.019 115.936C249.542 99.0615 253.197 80.6237 259.539 62.917C261.042 58.7175 260.368 52.7383 255.597 52.8081C247.962 52.9105 244.379 47.7927 239.27 44.7805C234.773 41.9619 229.703 40.1908 224.434 39.5976C215.284 38.5066 207.119 40.9312 198.688 42.0549C193.413 42.7567 188.401 46.3009 183.586 49.0717C181.282 50.4091 181.477 52.0247 183.182 55.027C189.433 65.9249 193.072 77.2331 191.908 90.6945C190.666 105.149 185.606 118.091 180.736 131.278C176.144 143.714 173.003 156.649 173.744 169.357C174.231 177.565 175.305 185.711 176.395 193.871C176.907 197.6 177.39 201.334 177.842 205.073C178.698 212.03 179.363 219.004 179.537 226.054C179.727 234.867 184.081 243.443 185.319 252.291C186.877 263.444 187.315 274.778 187.931 286.049C188.359 293.063 188.42 300.095 188.113 307.115C187.75 311.779 186.92 316.394 185.633 320.89C185.252 322.343 183.346 323.413 182.143 324.695C181.92 323.393 181.826 322.072 181.864 320.752C182.378 316.081 184.002 311.354 183.5 306.823C181.692 290.122 178.922 273.825 170.469 258.53C163.035 245.059 157.197 230.471 155.618 214.919C155.061 209.453 155.523 203.878 155.55 198.343C155.603 187.665 154.16 176.748 156.138 166.371C158.493 153.917 154.386 144.024 148.093 134.255C145.745 130.618 142.118 127.77 139.875 124.101C132.713 112.493 130.832 98.9964 135.435 87.0135C141.259 71.9283 146.524 57.2876 147.697 41.0897C148.041 36.0647 149.987 30.9229 145.589 28.0531C141.171 25.2491 136.035 23.7971 130.808 23.8747C129.277 23.931 127.813 24.0505 126.358 24.1846C111.653 25.7554 98.331 31.9917 85.3935 38.9016C83.7381 39.7785 81.36 42.2323 81.6973 43.1413C82.4742 45.3198 84.6094 48.5676 86.3119 48.6187C90.5171 48.7294 94.7251 48.6194 98.9186 48.2893C101.975 48.1079 105.09 47.8208 108.166 47.5219C110.589 47.2987 112.918 45.9821 115.293 45.1622C113.481 47.0862 111.994 50.0435 109.789 50.709C104.38 52.3633 98.6523 53.1531 93.0061 53.9045C89.9704 54.3076 86.8347 53.6256 83.8608 54.1154C82.7709 54.2929 81.2284 56.477 81.2365 57.7323C81.2463 65.1752 81.2063 72.6613 82.0215 80.0068C83.358 91.8431 81.0625 103.613 81.5049 115.501C82.0279 130.263 82.8922 144.062 90.5725 157.047C94.588 163.859 99.2721 170.841 100.89 178.313C104.127 193.349 106.411 208.627 104.361 224.32C102.976 234.797 101.315 245.869 103.432 255.922C105.651 266.575 112.226 276.318 116.755 286.535C117.199 287.527 116.305 289.073 116.031 290.354C114.849 289.785 113.332 289.486 112.557 288.586C107.568 282.797 103.309 276.339 97.7636 271.101C88.3073 262.101 76.9769 254.523 76.0236 240.093C69.3446 234.305 73.5859 226.894 73.1936 220.218C72.7808 213.321 72.1027 206.379 76.358 199.953C78.9293 196.095 76.338 193.151 72.9285 191.831C69.9022 190.669 66.3101 190.453 62.9802 190.498C51.773 190.675 42.0526 195.316 33.1404 201.308C28.1679 204.702 23.1207 208.619 19.944 213.412C18.4514 215.638 22.038 220.463 22.1405 224.16C22.4474 234.827 23.9414 245.871 21.6269 256.101C18.5739 269.406 26.2423 277.761 33.1159 286.244C39.5121 294.131 48.0782 300.222 56.9472 306.017C70.5886 314.916 83.0793 325.416 95.9003 335.416C101.298 339.634 107.052 343.72 111.367 348.863C121.374 360.84 130.797 373.149 144.142 382.245C147.807 384.751 149.763 389.641 152.299 393.576C154.647 397.212 156.445 401.131 158.907 404.672C163.945 411.914 175.854 414.099 182.973 409.151C191.188 403.431 198.761 396.584 207.577 391.958C221.913 384.472 235.336 376.408 244.567 362.958C246.724 359.786 249.417 357.016 252.524 354.773C263.122 347.309 273.692 339.723 284.907 333.203C290.229 330.108 295.02 326.245 303.449 327.842C313.426 329.743 324.851 328.428 334.893 325.769C346.748 322.627 357.798 316.569 369.709 311.11C376.72 305.74 383.614 301.776 387.448 294.118C391.991 285.061 398.307 276.819 403.01 267.832C406.538 261.096 408.844 253.779 411.331 246.584C411.747 245.351 410.858 242.79 409.764 242.166ZM227.444 46.9182C229.239 47.3076 231.756 47.4379 232.585 48.5944C234.344 51.0138 237.207 53.1542 231.233 56.024C218.727 62.0311 207.739 60.5007 196.776 53.7435C205.37 46.9565 215.939 44.4414 227.444 46.9182ZM187.731 135.657C187.486 136.165 187.217 136.668 186.971 137.161C186.317 135.988 187.016 135.816 187.731 135.657ZM180.717 169.67C179.518 170.327 179.34 169.643 179.154 168.966C179.676 169.211 180.204 169.44 180.717 169.67ZM182.382 189.32C182.951 190.105 183.341 191.006 183.524 191.958C183.585 192.395 183.59 192.837 183.538 193.275C182.995 193.225 181.989 193.14 181.985 193.102C182.072 191.869 182.232 190.606 182.382 189.32ZM184.935 205.105L183.334 204.398C184.573 203.759 184.759 204.444 184.937 205.128L184.935 205.105ZM100.363 44.3727C99.8364 44.551 99.2854 44.6459 98.7296 44.6542C97.0172 44.6289 95.3119 44.4245 93.6416 44.0442C92.759 43.8866 92.1041 42.6987 91.3627 41.9887C91.9577 41.5562 92.5918 41.1804 93.2566 40.8664C104.289 36.8753 115.293 32.91 126.383 29.037C126.531 28.9937 126.682 28.9592 126.834 28.9337C128.024 28.7624 129.49 29.3286 130.81 29.4767C132.222 31.219 132.503 32.5956 132.281 32.6854C121.687 36.69 111.071 40.6966 100.363 44.3727ZM32.4142 224.523C32.618 223.233 32.3635 221.222 33.1205 220.767C35.6164 219.258 38.5057 217.265 41.1695 217.328C45.891 217.463 41.1415 219.442 41.3323 220.596C39.0311 222.634 37.8274 223.577 36.4575 224.05C35.1294 224.346 33.7746 224.504 32.4142 224.523ZM39.7702 203.81C45.6247 200.651 51.9682 198.379 58.1937 195.994C59.2929 195.585 60.9267 196.474 62.3061 196.771C61.751 197.916 61.4972 199.581 60.5575 200.138C56.4527 202.527 52.1181 204.591 47.88 206.785C44.3345 208.075 43.0263 209.968 42.0904 209.815C37.8113 209.146 35.259 217.38 30.276 211.99C33.4231 209.211 36.1536 205.746 39.7681 203.787L39.7702 203.81ZM388.201 257.345C384.721 259.516 373.551 256.761 370.397 253.053C377.632 252.779 382.484 252.748 387.297 253.036C387.937 253.07 388.696 254.549 388.989 255.485C389.02 255.836 388.964 256.19 388.826 256.514C388.688 256.838 388.474 257.124 388.201 257.345ZM319.463 103.715C324.455 100.365 329.946 97.3547 324.042 90.6322C323.903 90.46 324.788 88.8913 325.332 88.7949C329.701 88.0224 334.332 86.4244 338.382 87.1069C341.95 87.7336 346.221 90.3916 347.892 93.3584C350.341 97.7563 344.764 99.1794 342.05 101.487C334.975 106.986 327.79 107.047 320.877 108.061C320.375 108.037 319.888 107.885 319.46 107.62C319.033 107.354 318.679 106.985 318.433 106.545C318.356 106.025 318.41 105.493 318.59 104.999C318.77 104.505 319.07 104.063 319.463 103.715ZM392.641 249.593C385.61 245.825 378.532 247.04 371.234 248.128C370.333 248.265 369.067 246.864 368.216 245.972C367.987 245.738 368.607 244.132 368.943 244.109C376.704 243.294 384.455 242.456 392.251 242.023C393.469 241.911 394.794 243.692 396.068 244.599C398.829 250.217 394.135 250.387 392.641 249.593Z" fill="#00A7CE"/>
</g>
<defs>
<clipPath id="clip0_398_1043">
<rect width="390.44" height="390.44" fill="white" transform="translate(0 35.8262) rotate(-5.26479)"/>
</clipPath>
</defs>
</svg>
